!!!OTL: Kreuzesliebe (3-7), S. 29
!!!id: P0978
**kern
*clefG2
*k[f#]
*G:
{4b
=1
4dd
4b
4dd
=2
4cc
4a}
=3
{4cc
=4
4b
4g
4b
=5
2a}
=6
{4d
=7
4g
4g
4a
=8
4b
4b}
=9
{4cc
=10
4dd
8b
8g
8a
8f#
=11
2g}
==
*-
!!!minrhy: 8
!!!meters: 3/4 ]  ZZ[4
!!!cut: Kreuzesliebe (3-7), S. 29
!!!reg: Lothringen
!!!trd: PINCK, Louis: Verklingende Weisen, Bd3, Metz 1933
!!!rhy1: X_  X_X_X_  X_X_   (x2)
!!!rhy2: X_  X_X_X_  X__
!!!key: P0978  08  G 3/4 ]  ZZ[4
!!!mod: SECHSTONSKALA DUR ?]  AMBITUS[8
!!!kad: 2231
!!!akz: 54_32_13_51_
!!!fot: 'a__as"b__c__
!!!for: 'a__aw_a__b__
!!!fok: '^d_\__/__\__
!! PHRAS[AUFTAKTIG]
!!!fkt: yyy
!! LOTH VKL
!! PR[10] 2K[18] 2G[17] 3K[2] 3G[3] 4A[3] 4Ü[0] 5A[2] 6K[0] 6G[0]
!! 7K[0] 7G[0] 8A[0] MEHR[0] SI[45] ABS[60] SR[35] SP[10]
!! ST[26] 2k[18] 2g[17] 3k[3] 3g[3] 4d[0] 4ü[0] 5d[3] 6k[0] 6g[0]
!! 7k[0] 7g[0] 8d[0] mehr[0] si[45] dm[0] sr[35] sp[10]
!! 1F[6] 2F[63] 3F[28] 4F[0] LF[0] 2P[0] 3P[3] 4P[0] TRI[0] DF[4] AB[67]
!! TF[0] U3K[0] U3[0] U4[0] U4Ü[0] U5[0] U6K[0] U6[0] U7K[0] U7[0]
!! N1[11] N2K[0] N2[7] N3K[7] N3[7] N4[23] N4Ü[0] N5[25] N6K[13] N6[5]
!!!n7k: 3] N7[0] O1[0] O2K[0] O2[0] O3K[0] O3[0] HÖ[0
